src/icons/add-tag.svg

<?xml version="1.0" encoding="UTF-8"?>
<svg xmlns="http://www.w3.org/2000/svg" xmlns:xlink="http://www.w3.org/1999/xlink" width="32" height="32" viewBox="0 0 32 32" version="1.1">
<g id="surface1">
<path style=" stroke:none;fill-rule:nonzero;fill:rgb(0%,0%,0%);fill-opacity:1;" d="M 18.558594 1.28125 C 17.734375 1.28125 16.929688 1.328125 16.359375 1.898438 L 1.820312 16.441406 C 1.46875 16.789062 1.28125 17.265625 1.28125 17.761719 C 1.28125 18.253906 1.46875 18.710938 1.820312 19.058594 L 12.941406 30.179688 C 13.289062 30.53125 13.746094 30.71875 14.238281 30.71875 C 14.734375 30.71875 15.210938 30.53125 15.558594 30.179688 L 18.601562 27.140625 C 19.648438 29.25 21.808594 30.71875 24.320312 30.71875 C 27.847656 30.71875 30.71875 27.847656 30.71875 24.320312 C 30.71875 21.808594 29.25 19.648438 27.140625 18.601562 L 30.101562 15.640625 C 30.726562 15.015625 30.726562 14.105469 30.71875 13.238281 L 30.71875 3.519531 C 30.71875 2.285156 29.714844 1.28125 28.480469 1.28125 Z M 24.960938 5.121094 C 26.019531 5.121094 26.878906 5.980469 26.878906 7.039062 C 26.878906 8.101562 26.019531 8.960938 24.960938 8.960938 C 23.898438 8.960938 23.039062 8.101562 23.039062 7.039062 C 23.039062 5.980469 23.898438 5.121094 24.960938 5.121094 Z M 24.320312 19.199219 C 27.15625 19.199219 29.441406 21.484375 29.441406 24.320312 C 29.441406 27.15625 27.15625 29.441406 24.320312 29.441406 C 21.484375 29.441406 19.199219 27.15625 19.199219 24.320312 C 19.199219 21.484375 21.484375 19.199219 24.320312 19.199219 Z M 23.679688 21.121094 L 23.679688 23.679688 L 21.121094 23.679688 L 21.121094 24.960938 L 23.679688 24.960938 L 23.679688 27.519531 L 24.960938 27.519531 L 24.960938 24.960938 L 27.519531 24.960938 L 27.519531 23.679688 L 24.960938 23.679688 L 24.960938 21.121094 Z M 23.679688 21.121094 "/>
</g>
</svg>

<svg role="img" viewBox="0 0 32 32" xmlns="http://www.w3.org/2000/svg"><path d="M18.559 1.281c-.825 0-1.63.047-2.2.617L1.82 16.441a1.852 1.852 0 0 0-.539 1.32c0 .493.188.95.54 1.298l11.12 11.12c.348.352.805.54 1.297.54.496 0 .973-.188 1.32-.54l3.044-3.038c1.046 2.109 3.207 3.578 5.718 3.578a6.407 6.407 0 0 0 6.399-6.399c0-2.511-1.469-4.672-3.578-5.718l2.96-2.961c.626-.625.626-1.536.618-2.403V3.52a2.24 2.24 0 0 0-2.239-2.24Zm6.402 3.84a1.92 1.92 0 1 1-.003 3.84 1.92 1.92 0 0 1 .003-3.84M24.32 19.2a5.111 5.111 0 0 1 5.12 5.121 5.111 5.111 0 0 1-5.12 5.121 5.111 5.111 0 0 1-5.122-5.12 5.111 5.111 0 0 1 5.121-5.122m-.641 1.922v2.559H21.12v1.28h2.559v2.56h1.28v-2.56h2.56v-1.28h-2.56V21.12Zm0 0" style="stroke:none;fill-rule:nonzero;fill:rgb(0%,0%,0%);fill-opacity:1"/></svg>
